packages/core/src/svgs/tokens/branded/ELAND.svg

<svg width="24" height="24" viewBox="0 0 24 24" fill="none" xmlns="http://www.w3.org/2000/svg">
<path d="M11.9364 4.87833L4.66268 7.61519C4.65901 7.61585 4.65522 7.61573 4.65159 7.61482C4.64795 7.61391 4.64456 7.61224 4.64163 7.60992L4.6311 7.59939V7.5836C5.7048 0.16254 18.2259 0.130953 19.368 7.53623C19.3733 7.58887 19.3521 7.60466 19.3049 7.58887L12.0417 4.87833C12.0079 4.86486 11.9702 4.86486 11.9364 4.87833Z" fill="#006666"/>
<path d="M18.5361 11.1257C18.5227 11.152 18.5003 11.1726 18.4729 11.1835L12.0308 14.331C12.0186 14.3373 12.0051 14.3408 11.9913 14.3408C11.9776 14.3408 11.964 14.3373 11.9518 14.331L5.52024 11.1835C5.49308 11.1722 5.47074 11.1517 5.45708 11.1257C5.1676 10.4994 4.93602 9.8572 4.75708 9.19404C4.75708 9.17304 4.76234 9.15192 4.7834 9.14136L11.9414 6.45719C11.9719 6.44591 12.0055 6.44591 12.036 6.45719L19.2044 9.12564C19.215 9.12564 19.2256 9.1362 19.2256 9.14136C19.0546 9.82085 18.822 10.4832 18.5308 11.1204L18.5361 11.1257Z" fill="#006666"/>
<path d="M11.9735 20.0257C11.9803 20.0166 11.984 20.0056 11.984 19.9942C11.9853 19.981 11.9815 19.9679 11.9735 19.9573C10.6261 18.4942 9.34189 16.9784 8.12084 15.4099C7.6311 14.7825 7.18109 14.1251 6.77347 13.4415C6.75241 13.3994 6.76294 13.3889 6.80505 13.41L11.9471 15.9204C11.984 15.9362 12.0156 15.9362 12.0525 15.9204L17.1787 13.4257C17.2524 13.3889 17.2682 13.4047 17.2261 13.4731C15.7787 15.7889 13.884 17.9467 12.0261 19.9626C12.018 19.9721 12.0134 19.9842 12.0134 19.9968C12.0134 20.0093 12.018 20.0214 12.0261 20.031C12.3419 20.3363 13.0261 21.1416 12.7576 21.5994C12.5314 21.9837 11.963 22.1047 11.5735 21.9047C10.6893 21.4467 11.5735 20.4416 11.9735 20.0257Z" fill="#006666"/>
</svg>

<svg xmlns="http://www.w3.org/2000/svg" width="24" height="24" fill="none" viewBox="0 0 24 24">
    <path fill="#066" d="M11.936 4.878 4.663 7.615a.03.03 0 0 1-.021-.005l-.01-.01v-.016C5.704.163 18.225.13 19.367 7.536q.007.078-.063.053l-7.263-2.71a.14.14 0 0 0-.106 0"/>
    <path fill="#066" d="M18.536 11.126a.12.12 0 0 1-.063.058L12.03 14.33a.09.09 0 0 1-.08 0l-6.43-3.147a.13.13 0 0 1-.064-.058 12 12 0 0 1-.7-1.932c0-.021.005-.042.026-.053l7.158-2.684a.14.14 0 0 1 .095 0l7.168 2.669c.011 0 .022.01.022.015q-.258 1.022-.695 1.98z"/>
    <path fill="#066" d="M11.974 20.026q.01-.015.01-.032a.05.05 0 0 0-.01-.037A72 72 0 0 1 8.12 15.41q-.735-.942-1.348-1.969-.03-.063.032-.031l5.142 2.51a.12.12 0 0 0 .106 0l5.126-2.494q.11-.055.047.047c-1.447 2.316-3.342 4.474-5.2 6.49a.05.05 0 0 0 0 .068c.316.305 1 1.11.732 1.568-.227.385-.795.506-1.184.306-.885-.458 0-1.463.4-1.88"/>
</svg>
